cssgg/trash.svg

<svg
  width="24"
  height="24"
  viewBox="0 0 24 24"
  fill="none"
  xmlns="http://www.w3.org/2000/svg"
>
  <path
    fill-rule="evenodd"
    clip-rule="evenodd"
    d="M17 5V4C17 2.89543 16.1046 2 15 2H9C7.89543 2 7 2.89543 7 4V5H4C3.44772 5 3 5.44772 3 6C3 6.55228 3.44772 7 4 7H5V18C5 19.6569 6.34315 21 8 21H16C17.6569 21 19 19.6569 19 18V7H20C20.5523 7 21 6.55228 21 6C21 5.44772 20.5523 5 20 5H17ZM15 4H9V5H15V4ZM17 7H7V18C7 18.5523 7.44772 19 8 19H16C16.5523 19 17 18.5523 17 18V7Z"
    fill="currentColor"
  />
  <path d="M9 9H11V17H9V9Z" fill="currentColor" />
  <path d="M13 9H15V17H13V9Z" fill="currentColor" />
</svg>

<svg viewBox="0 0 24 24" xmlns="http://www.w3.org/2000/svg"><path fill-rule="evenodd" d="M17 5V4c0-1.11-.9-2-2-2H9c-1.11 0-2 .89-2 2v1H4c-.56 0-1 .44-1 1 0 .55.44 1 1 1h1v11c0 1.65 1.34 3 3 3h8c1.65 0 3-1.35 3-3V7h1c.55 0 1-.45 1-1 0-.56-.45-1-1-1h-3Zm-2-1H9v1h6V4Zm2 3H7v11c0 .55.44 1 1 1h8c.55 0 1-.45 1-1V7Z"/><g><path d="M9 9h2v8H9V9Z"/><path d="M13 9h2v8h-2V9Z"/></g></svg>
